X:32
T:Collage Hornpipe. GS.032
T:Sailors Hornpipe,aka. GS.032
T:College Hornpipe,aka. GS.032
M:2/2
L:1/8
Q:1/2=90
S:George Spencer m/s, Leeds,1831
R:.Hornpipe
O:England
A:Leeds
N:Mr. Spencer was obviously having serious problems with his pen, as
N:many of the noteheads are large blots. 1 â€“ This bar has five beats,
N:there are two low crochets Dâ€™s 2 â€“ this note is given as low D in the
N:MS â€“ and the bar is then
N:repeated identically, (giving 9 bars in the A music). â€“ so one bar
N:has been omitted. There are several other changes that could be made â€“
N:eg. first two notes would usually be DC rather than GF â€“ but where do
N:you stop?â€™GSâ€™ written on the stave st the end.
H:1831
Z:vmp.Cherri Graebe
K:D Major
(gf) | d2 D2 â€œ1 see NBâ€ DEFG | A2 d2d2 (cd) | e2 â€œ2â€ E2 EFGA |!
B2 e2e2 (dc) | defg a2 gf |gfed c2 (BA) |\
(Bd)(ce) (df)(eg) | f2 d2d2 :|!
|: (AG) | FA dA FA dA | B2G2G2 (BG) | GBdG GBdG |!
B2G2G2 (Bc) | defg a2 (gf) | fefd c2 (BA) | Bdce dfeg | BdFA G2G2G2 ğŸ˜

